X: 30603
T: One Pint Down
R: jig
M: 6/8
K: Eminor
E2e edB|dBA BAG|E2e edB|def gfg|
eEe edB|dBA BAG|1 ABc B2G|FED E2D:|2 ABc Bcd|cde def]|
|:g2G GAB|cag fef|g2G dcB|ABc d2^d|
eEe edB|cag fef|g2d edc|1 BAF G2d:|2 BAG FED||

